X: 1
T: Reinlendar fr\aa R\/orostraktene
O: Norwegian
R: shottish
%S: s:3 b:18(6+6+6)
%S: s:4 b:16(4+4+4+4)
Z: 2022 John Chambers <jc:trillian.mit.edu>
S: From Bruce Sagan's "Virtual Jams" collection.
S: From the playing of The Good Tune.
D: https://youtu.be/oUcThM61Z4o
M: C
L: 1/8
K: A
cd |:\
"A"eagb "D"agaf | "A"ecAB c2ce | "Bm"dcBc "(E7)"d2df | "A"ecAB c2cd || "A"eagb "D"agaf | "A"ecAB c2ce |
"Bm"dcBc "E7"defg |1 "A"a2ag a2cd :|2 "A"a2ag abag ||: "D"f2d2 f3f | "A"ecAB c2ce | "Bm"dcBc "E7"d2df |
"A"ecAB ceag || "D"f2d2 f3f | "A"ecAB c2ce | "Bm"dcBc "E7"defg |1 "A"a2ag abag |:2 "A"a2ag a2 |]
